img/activities/02.svg

<svg width="73" height="64" viewBox="0 0 73 64" fill="none" xmlns="http://www.w3.org/2000/svg">
<g clip-path="url(#clip0_14_4276)">
<path d="M4.1 4C2.10875 4 0.5 5.7875 0.5 8C0.5 10.2125 2.10875 12 4.1 12V32C4.1 38.625 8.9375 44 14.9 44V48H22.1V44H43.7V48H50.9V44C56.8625 44 61.7 38.625 61.7 32V20C63.6912 20 65.3 18.2125 65.3 16C65.3 13.7875 63.6912 12 61.7 12H58.1H54.5C52.5087 12 50.9 13.7875 50.9 16V21.1625C50.9 24.9375 48.1437 28 44.7462 28C36.2525 28 28.3662 23.1375 23.8662 15.1375L23.3825 14.275C20.0975 8.45 14.5625 4.7 8.45375 4.0875C8.20625 4.025 7.95875 4 7.7 4H6.6875H4.1ZM72.5 48C72.5 45.7875 70.8913 44 68.9 44C66.9087 44 65.3 45.7875 65.3 48V49C65.3 50.6625 64.0962 52 62.6 52H7.7C5.70875 52 4.1 53.7875 4.1 56C4.1 58.2125 5.70875 60 7.7 60H62.6C68.0675 60 72.5 55.075 72.5 49V48Z" fill="#D8AE5E"/>
</g>
<defs>
<clipPath id="clip0_14_4276">
<rect width="72" height="64" fill="white" transform="translate(0.5)"/>
</clipPath>
</defs>
</svg>

<svg xmlns="http://www.w3.org/2000/svg" width="73" height="64" fill="none"><g clip-path="url(#a)"><path fill="#D8AE5E" d="M4.1 4C2.1 4 .5 5.8.5 8s1.6 4 3.6 4v20c0 6.6 4.8 12 10.8 12v4h7.2v-4h21.6v4h7.2v-4c6 0 10.8-5.4 10.8-12V20c2 0 3.6-1.8 3.6-4s-1.6-4-3.6-4h-7.2c-2 0-3.6 1.8-3.6 4v5.2c0 3.7-2.8 6.8-6.2 6.8-8.4 0-16.3-4.9-20.8-12.9l-.5-.8A19.6 19.6 0 0 0 7.7 4H4.1Zm68.4 44c0-2.2-1.6-4-3.6-4s-3.6 1.8-3.6 4v1c0 1.7-1.2 3-2.7 3H7.7c-2 0-3.6 1.8-3.6 4s1.6 4 3.6 4h54.9c5.5 0 9.9-5 9.9-11v-1Z"/></g><defs><clipPath id="a"><path fill="#fff" d="M.5 0h72v64H.5z"/></clipPath></defs></svg>
